icons-rebrand/svg/rotate-content-regular.svg

<svg xmlns="http://www.w3.org/2000/svg" width="32" height="32" viewBox="0 0 32 32" fill="none"><path d="M8.25005 19C8.25005 16.3766 10.3767 14.25 13 14.25H24C26.6234 14.25 28.75 16.3766 28.75 19V24C28.75 26.6234 26.6234 28.75 24 28.75H13C10.3767 28.75 8.25005 26.6234 8.25005 24V19ZM13 15.75C11.2051 15.75 9.75005 17.2051 9.75005 19V24C9.75005 25.7949 11.2051 27.25 13 27.25H24C25.795 27.25 27.25 25.7949 27.25 24V19C27.25 17.2051 25.795 15.75 24 15.75H13Z M15.3331 3.46967C15.0402 3.17678 14.5653 3.17677 14.2724 3.46967C13.9795 3.76256 13.9795 4.23743 14.2724 4.53033L16.1197 6.37768C11.1838 6.6404 7.96793 8.68513 5.98513 11.2261C3.86329 13.9454 3.19911 17.1724 3.25299 19.2198C3.26389 19.6339 3.6084 19.9607 4.02247 19.9498C4.43654 19.9389 4.76337 19.5944 4.75248 19.1803C4.70635 17.4277 5.29043 14.5547 7.16771 12.1489C8.8928 9.93817 11.7503 8.06805 16.3751 7.867L14.2724 9.9697C13.9795 10.2626 13.9795 10.7375 14.2724 11.0304C14.5653 11.3232 15.0402 11.3232 15.3331 11.0304L18.5477 7.81571C18.8601 7.50329 18.8601 6.99677 18.5477 6.68434L15.3331 3.46967Z"/></svg>

<svg width="32" height="32" fill="none" xmlns="http://www.w3.org/2000/svg"><path fill-rule="evenodd" clip-rule="evenodd" d="M8.25 19c0-2.6234 2.1267-4.75 4.75-4.75h11c2.6234 0 4.75 2.1266 4.75 4.75v5c0 2.6234-2.1266 4.75-4.75 4.75H13c-2.6233 0-4.75-2.1266-4.75-4.75v-5zM13 15.75c-1.7949 0-3.25 1.4551-3.25 3.25v5c0 1.7949 1.4551 3.25 3.25 3.25h11c1.795 0 3.25-1.4551 3.25-3.25v-5c0-1.7949-1.455-3.25-3.25-3.25H13z" fill="#0F0F0F"/><path d="M15.3331 3.4697a.75.75 0 00-1.0607 1.0606l1.8473 1.8474c-4.9359.2627-8.1518 2.3074-10.1346 4.8484-2.1218 2.7193-2.786 5.9463-2.7321 7.9937a.75.75 0 101.4995-.0395c-.0462-1.7526.538-4.6256 2.4152-7.0314 1.7251-2.2107 4.5826-4.0808 9.2074-4.2819l-2.1027 2.1027a.75.75 0 001.0607 1.0607l3.2146-3.2147a.8.8 0 000-1.1314l-3.2146-3.2146z" fill="#0F0F0F"/></svg>
